Numix-Light/16/status/indicator-keyboard-Sq.svg

<?xml version="1.0" encoding="UTF-8" standalone="no"?>
<svg
   xmlns:dc="http://purl.org/dc/elements/1.1/"
   xmlns:cc="http://creativecommons.org/ns#"
   xmlns:rdf="http://www.w3.org/1999/02/22-rdf-syntax-ns#"
   xmlns:svg="http://www.w3.org/2000/svg"
   xmlns="http://www.w3.org/2000/svg"
   xmlns:sodipodi="http://sodipodi.sourceforge.net/DTD/sodipodi-0.dtd"
   xmlns:inkscape="http://www.inkscape.org/namespaces/inkscape"
   viewBox="0 0 16 16"
   id="svg2"
   version="1.1"
   inkscape:version="0.91 r13725"
   sodipodi:docname="indicator-keyboard-Sq.svg">
  <metadata
     id="metadata13">
    <rdf:RDF>
      <cc:Work
         rdf:about="">
        <dc:format>image/svg+xml</dc:format>
        <dc:type
           rdf:resource="http://purl.org/dc/dcmitype/StillImage" />
      </cc:Work>
    </rdf:RDF>
  </metadata>
  <defs
     id="defs11" />
  <sodipodi:namedview
     pagecolor="#ffffff"
     bordercolor="#666666"
     borderopacity="1"
     objecttolerance="10"
     gridtolerance="10"
     guidetolerance="10"
     inkscape:pageopacity="0"
     inkscape:pageshadow="2"
     inkscape:window-width="640"
     inkscape:window-height="480"
     id="namedview9"
     showgrid="false"
     inkscape:zoom="14.75"
     inkscape:cx="8"
     inkscape:cy="8"
     inkscape:window-x="65"
     inkscape:window-y="24"
     inkscape:window-maximized="0"
     inkscape:current-layer="svg2" />
  <path
     style="fill:#353535;fill-opacity:1"
     d="M 1.5996094 0 C 0.71320937 2.9605947e-16 0 0.71320937 0 1.5996094 L 0 14.400391 C 2.9605947e-16 15.286791 0.71320937 16 1.5996094 16 L 14.400391 16 C 15.286791 16 16 15.286791 16 14.400391 L 16 1.5996094 C 16 0.71320937 15.286791 0 14.400391 0 L 1.5996094 0 z M 5.765625 3.9824219 C 5.933625 3.9824219 6.0977656 3.9935781 6.2597656 4.0175781 C 6.4217656 4.0415781 6.5729375 4.0751875 6.7109375 4.1171875 C 6.8549375 4.1531875 6.9836563 4.1941875 7.0976562 4.2421875 C 7.2176562 4.2901875 7.3165313 4.3405313 7.3945312 4.3945312 L 7.1777344 4.9082031 C 7.0037344 4.7882031 6.7910625 4.6930938 6.5390625 4.6210938 C 6.2930625 4.5490938 6.0262812 4.5117188 5.7382812 4.5117188 C 5.5402812 4.5117188 5.3574531 4.5341719 5.1894531 4.5761719 C 5.0274531 4.6121719 4.885625 4.6736719 4.765625 4.7636719 C 4.645625 4.8476719 4.5505156 4.9558906 4.4785156 5.0878906 C 4.4125156 5.2198906 4.3789062 5.3804062 4.3789062 5.5664062 C 4.3789062 5.7584062 4.4162812 5.9187813 4.4882812 6.0507812 C 4.5602813 6.1827813 4.6591562 6.2965781 4.7851562 6.3925781 C 4.9171562 6.4885781 5.0701406 6.5762969 5.2441406 6.6542969 C 5.4181406 6.7322969 5.6065469 6.8144375 5.8105469 6.8984375 C 6.0565469 7.0004375 6.2879062 7.101125 6.5039062 7.203125 C 6.7259063 7.305125 6.9180781 7.4264531 7.0800781 7.5644531 C 7.2420781 7.7024531 7.3707969 7.8703594 7.4667969 8.0683594 C 7.5627969 8.2663594 7.6113281 8.508875 7.6113281 8.796875 C 7.6113281 9.360875 7.411625 9.7844065 7.015625 10.066406 C 6.625625 10.348406 6.0958281 10.488281 5.4238281 10.488281 C 5.1838281 10.488281 4.963625 10.473359 4.765625 10.443359 C 4.567625 10.413359 4.3923281 10.377938 4.2363281 10.335938 C 4.0803281 10.287937 3.9478438 10.239406 3.8398438 10.191406 C 3.7318438 10.143406 3.6478906 10.102406 3.5878906 10.066406 L 3.7851562 9.5351562 C 3.8451563 9.5711563 3.9272969 9.6121562 4.0292969 9.6601562 C 4.1312969 9.7081562 4.2506719 9.7566875 4.3886719 9.8046875 C 4.5266719 9.8466875 4.6814687 9.8821094 4.8554688 9.9121094 C 5.0294687 9.9421094 5.2216406 9.9570313 5.4316406 9.9570312 C 5.9176406 9.9570312 6.2964062 9.8712656 6.5664062 9.6972656 C 6.8364063 9.5172656 6.9707031 9.2280313 6.9707031 8.8320312 C 6.9707031 8.6040312 6.9259375 8.415625 6.8359375 8.265625 C 6.7519375 8.109625 6.6381406 7.9809063 6.4941406 7.8789062 C 6.3501406 7.7709062 6.186 7.681375 6 7.609375 C 5.814 7.531375 5.6180625 7.4492344 5.4140625 7.3652344 C 5.1560625 7.2632344 4.9247031 7.1587812 4.7207031 7.0507812 C 4.5167031 6.9427813 4.3432187 6.8234062 4.1992188 6.6914062 C 4.0552187 6.5534062 3.9451875 6.3966563 3.8671875 6.2226562 C 3.7951875 6.0486562 3.7578125 5.8453281 3.7578125 5.6113281 C 3.7578125 5.0773281 3.9350625 4.6705312 4.2890625 4.3945312 C 4.6430625 4.1185313 5.135625 3.9824219 5.765625 3.9824219 z M 10.720703 5.6113281 C 11.134703 5.6113281 11.476094 5.6374062 11.746094 5.6914062 C 12.016094 5.7454062 12.238109 5.8032813 12.412109 5.8632812 L 12.412109 12.017578 L 11.828125 12.017578 L 11.828125 10.083984 C 11.726125 10.161984 11.560031 10.245937 11.332031 10.335938 C 11.110031 10.419938 10.847016 10.460937 10.541016 10.460938 C 10.205016 10.460938 9.9046251 10.40125 9.640625 10.28125 C 9.382625 10.16125 9.164375 9.9971091 8.984375 9.7871094 C 8.804375 9.5711094 8.6663125 9.3154844 8.5703125 9.0214844 C 8.4803125 8.7214844 8.4355469 8.3950156 8.4355469 8.0410156 C 8.4355469 7.6630156 8.4877031 7.3234375 8.5957031 7.0234375 C 8.7097031 6.7234375 8.8664531 6.4678125 9.0644531 6.2578125 C 9.2684531 6.0478125 9.5091562 5.88925 9.7851562 5.78125 C 10.067156 5.66725 10.378703 5.6113281 10.720703 5.6113281 z M 10.730469 6.140625 C 10.226469 6.140625 9.8196719 6.3067188 9.5136719 6.6367188 C 9.2076719 6.9607187 9.0546875 7.4290156 9.0546875 8.0410156 C 9.0546875 8.2990156 9.0827188 8.5452969 9.1367188 8.7792969 C 9.1907188 9.0072969 9.2784375 9.2068594 9.3984375 9.3808594 C 9.5184375 9.5488594 9.6732344 9.6851094 9.8652344 9.7871094 C 10.063234 9.8831094 10.30575 9.9296875 10.59375 9.9296875 C 10.73175 9.9296875 10.864234 9.9185313 10.990234 9.8945312 C 11.116234 9.8645313 11.233797 9.8291094 11.341797 9.7871094 C 11.449797 9.7451094 11.543094 9.7003438 11.621094 9.6523438 C 11.705094 9.6043438 11.774125 9.557625 11.828125 9.515625 L 11.828125 6.2675781 C 11.738125 6.2375781 11.601875 6.2095469 11.421875 6.1855469 C 11.247875 6.1555469 11.018469 6.140625 10.730469 6.140625 z "
     id="path4" />
</svg>

<svg xmlns="http://www.w3.org/2000/svg" viewBox="0 0 16 16">
 <path d="m 1.6 0 c -0.886 0 -1.6 0.713 -1.6 1.6 l 0 12.801 c 0 0.886 0.713 1.6 1.6 1.6 l 12.801 0 c 0.886 0 1.6 -0.713 1.6 -1.6 l 0 -12.801 c 0 -0.886 -0.713 -1.6 -1.6 -1.6 l -12.801 0 z m 4.166 3.982 c 0.168 0 0.332 0.011 0.494 0.035 c 0.162 0.024 0.313 0.058 0.451 0.1 c 0.144 0.036 0.273 0.077 0.387 0.125 c 0.12 0.048 0.219 0.098 0.297 0.152 l -0.217 0.514 c -0.174 -0.12 -0.387 -0.215 -0.639 -0.287 c -0.246 -0.072 -0.513 -0.109 -0.801 -0.109 c -0.198 0 -0.381 0.022 -0.549 0.064 c -0.162 0.036 -0.304 0.098 -0.424 0.188 c -0.12 0.084 -0.215 0.192 -0.287 0.324 c -0.066 0.132 -0.1 0.293 -0.1 0.479 c 0 0.192 0.037 0.352 0.109 0.484 c 0.072 0.132 0.171 0.246 0.297 0.342 c 0.132 0.096 0.285 0.184 0.459 0.262 c 0.174 0.078 0.362 0.16 0.566 0.244 c 0.246 0.102 0.477 0.203 0.693 0.305 c 0.222 0.102 0.414 0.223 0.576 0.361 c 0.162 0.138 0.291 0.306 0.387 0.504 c 0.096 0.198 0.145 0.441 0.145 0.729 c 0 0.564 -0.2 0.988 -0.596 1.27 c -0.39 0.282 -0.92 0.422 -1.592 0.422 c -0.24 0 -0.46 -0.015 -0.658 -0.045 c -0.198 -0.03 -0.373 -0.065 -0.529 -0.107 c -0.156 -0.048 -0.288 -0.097 -0.396 -0.145 c -0.108 -0.048 -0.192 -0.089 -0.252 -0.125 l 0.197 -0.531 c 0.06 0.036 0.142 0.077 0.244 0.125 c 0.102 0.048 0.221 0.097 0.359 0.145 c 0.138 0.042 0.293 0.077 0.467 0.107 c 0.174 0.03 0.366 0.045 0.576 0.045 c 0.486 0 0.865 -0.086 1.135 -0.26 c 0.27 -0.18 0.404 -0.469 0.404 -0.865 c 0 -0.228 -0.045 -0.416 -0.135 -0.566 c -0.084 -0.156 -0.198 -0.285 -0.342 -0.387 c -0.144 -0.108 -0.308 -0.198 -0.494 -0.27 c -0.186 -0.078 -0.382 -0.16 -0.586 -0.244 c -0.258 -0.102 -0.489 -0.206 -0.693 -0.314 c -0.204 -0.108 -0.377 -0.227 -0.521 -0.359 c -0.144 -0.138 -0.254 -0.295 -0.332 -0.469 c -0.072 -0.174 -0.109 -0.377 -0.109 -0.611 c 0 -0.534 0.177 -0.941 0.531 -1.217 c 0.354 -0.276 0.847 -0.412 1.477 -0.412 z m 4.955 1.629 c 0.414 0 0.755 0.026 1.025 0.08 c 0.27 0.054 0.492 0.112 0.666 0.172 l 0 6.154 l -0.584 0 l 0 -1.934 c -0.102 0.078 -0.268 0.162 -0.496 0.252 c -0.222 0.084 -0.485 0.125 -0.791 0.125 c -0.336 0 -0.636 -0.06 -0.9 -0.18 c -0.258 -0.12 -0.476 -0.284 -0.656 -0.494 c -0.18 -0.216 -0.318 -0.472 -0.414 -0.766 c -0.09 -0.3 -0.135 -0.626 -0.135 -0.98 c 0 -0.378 0.052 -0.718 0.16 -1.018 c 0.114 -0.3 0.271 -0.556 0.469 -0.766 c 0.204 -0.21 0.445 -0.369 0.721 -0.477 c 0.282 -0.114 0.594 -0.17 0.936 -0.17 z m 0.01 0.529 c -0.504 0 -0.911 0.166 -1.217 0.496 c -0.306 0.324 -0.459 0.792 -0.459 1.404 c 0 0.258 0.028 0.504 0.082 0.738 c 0.054 0.228 0.142 0.428 0.262 0.602 c 0.12 0.168 0.275 0.304 0.467 0.406 c 0.198 0.096 0.441 0.143 0.729 0.143 c 0.138 0 0.27 -0.011 0.396 -0.035 c 0.126 -0.03 0.244 -0.065 0.352 -0.107 c 0.108 -0.042 0.201 -0.087 0.279 -0.135 c 0.084 -0.048 0.153 -0.095 0.207 -0.137 l 0 -3.248 c -0.09 -0.03 -0.226 -0.058 -0.406 -0.082 c -0.174 -0.03 -0.403 -0.045 -0.691 -0.045 z" style="fill:#353535;fill-opacity:1"/>
</svg>
